Yaru++/apps/symbolic/com.github.alecaddd.taxi-symbolic.svg

<svg height="16" width="16" xmlns="http://www.w3.org/2000/svg">
  <path d="m0 4.8v3.2h3.2v-3.2zm3.2 3.2v3.2h3.2v-3.2zm3.2 0h3.2v-3.2h-3.2zm3.2 0v3.2h3.2v-3.2zm3.2 0h3.2v-3.2h-3.2z" fill="#808080"/>
</svg>

<?xml version="1.0" encoding="UTF-8" standalone="no"?>
<svg
   xmlns:dc="http://purl.org/dc/elements/1.1/"
   xmlns:cc="http://creativecommons.org/ns#"
   xmlns:rdf="http://www.w3.org/1999/02/22-rdf-syntax-ns#"
   xmlns:svg="http://www.w3.org/2000/svg"
   xmlns="http://www.w3.org/2000/svg"
   xmlns:sodipodi="http://sodipodi.sourceforge.net/DTD/sodipodi-0.dtd"
   xmlns:inkscape="http://www.inkscape.org/namespaces/inkscape"
   width="16"
   height="16"
   version="1.1"
   id="svg7"
   sodipodi:docname="com.github.alecaddd.taxi-symbolic.svg"
   inkscape:version="0.92.4 (5da689c313, 2019-01-14)">
  <metadata
     id="metadata11">
    <rdf:RDF>
      <cc:Work
         rdf:about="">
        <dc:format>image/svg+xml</dc:format>
        <dc:type
           rdf:resource="http://purl.org/dc/dcmitype/StillImage" />
        <dc:title />
      </cc:Work>
    </rdf:RDF>
  </metadata>
  <sodipodi:namedview
     pagecolor="#ffffff"
     bordercolor="#666666"
     borderopacity="1"
     objecttolerance="10"
     gridtolerance="10"
     guidetolerance="10"
     inkscape:pageopacity="0"
     inkscape:pageshadow="2"
     inkscape:window-width="793"
     inkscape:window-height="480"
     id="namedview9"
     showgrid="false"
     inkscape:zoom="14.75"
     inkscape:cx="-4.8813559"
     inkscape:cy="8"
     inkscape:window-x="0"
     inkscape:window-y="27"
     inkscape:window-maximized="0"
     inkscape:current-layer="svg7" />
  <defs
     id="defs3">
    <style
       id="current-color-scheme"
       type="text/css">
   .ColorScheme-Text { color: #444; } .ColorScheme-Highlight { color: #5294e2; }
  </style>
  </defs>
  <path
     fill="currentColor"
     class="ColorScheme-Text"
     d="M 0 4.8 L 0 8 L 3.2 8 L 3.2 4.8 L 0 4.8 Z M 3.2 8 L 3.2 11.2 L 6.4 11.2 L 6.4 8 L 3.2 8 Z M 6.4 8 L 9.6 8 L 9.6 4.8 L 6.4 4.8 L 6.4 8 Z M 9.6 8 L 9.6 11.2 L 12.8 11.2 L 12.8 8 L 9.6 8 Z M 12.8 8 L 16 8 L 16 4.8 L 12.8 4.8 L 12.8 8 Z"
     id="path5"
     style="fill:#808080;fill-opacity:1" />
</svg>
